X: 1199
T: Aarne Tarvaisen's
B: ralph
B: to learn
M:3/4
R: mazurka
Q: 1/4=100
K:Dminor
V:1 
A2|:"Dm" A>B AG FE|D2 d2 d2|"A7" A2 ^c2 c2|"Dm" A2 d2 d2|
 "Dm" A>B AG FE|D2 d2 d2|"A7" A2 ^c2 cA|"Dm" d2 d2:|
 |:z e|"Dm" fe d2 d^c|"A7" e2 A4|a2 g2 ge|"Dm" af d2 de|
 "Dm" fe d2 dc|"Gm" B>A G2 F2|"A7" E2 A2 A^c|"Dm" d2 d2:|
% abcbook-tune_id 6345470f787ff34685f80a59
% abcbook-link-0 https://www.youtube.com/watch?v=dxLkbqEsLSY
% abcbook-link-title-0 Aarne Tarvaisen masurkka

% abcbook-boost 0
% abcbook-tablature 
% abcbook-transpose 
% abcbook-lastupdated 1667895423253
% abcbook-soundfonts 
% abcbook-repeats 3


